X:1
T:What is our life? - Gibbons
T:James Gibb editions
T:#
%%score [ 1 2 { 3 | 4 } 5 ]
L:1/8
Q:1/4=100
M:2/2
K:F
V:1 treble nm="Soprano" snm="S"
V:2 treble nm="Alto" snm="A"
V:3 treble-8 nm="Tenor 1" snm="T"
V:4 treble-8 
V:5 bass nm="Bass" snm="B"
V:1
"^What is our life?""^Orlando Gibbons\n(1583-1625)" z8 |!mf! A8 | D2 D2 G4- | G2 (FE F4) | E4 E4 | %5
w: |What|is our life,|* our * *|life? a|
 F6 (ED) | E4 E4 |[M:2/2] D8 | z8 | z8 | z8 | z4 A4- | A4 G4 | F8 | E8 | z8 | A8- | A4 =B4 | ^c8 | %19
w: play of *|pas- si-|on,||||what|* is|our|life,||what|* is|our|
 d8 | e8 | A2 A2 d4- | d2 d2 c4- | c4 =B4 | A8 | z2!f! A2 e2 e2 | f2 d4 e2- | edc=B A2 (d2- | %28
w: life?|our|life? a play|* of pas\-|* si-|on.|Our mirth the|mu- sic of|* di- vi- si- on, of|
 dc) _B2 A3 A | A4 z4 | z8 | z8 | z8 | z2!mf! d2 f2 e2 | d4 A2 c2- | c2 =B2 c4 | d4 G4 | z8 | z8 | %39
w: * * di- vi- si-|on.||||Our mo- thers'|wombs the tir\-|* ing- hou-|ses be,|||
 z4 z2 c2 | A2 A2 d4- | d4 G4 | B4 A4 | G4 F4 | E4 e4- | e4 A2 =B2 | ^c4 d4 | e4 f4 | e2 e2 d4 | %49
w: Where|we are dressed|* for|this short|co- me-|dy. Heaven|* the ju-|dì- cious|sharp spec-|ta- tor is,|
 z8 | z8 | z8 | z4 z2!f! e2 | f2 d2 e3 e | d2 d2 ^c3 e | d4 z4 | z8 | z4 z2 A2 | B2 G2 A3 G | %59
w: |||That|sits and marks still|who doth act a-|miss,||that|sits and marks still|
 F2 G2 E2 E2 | D4 z4 | z4!p! A4 | A8 | z8 | A4 B4- | B4 =B4 | c8- | c4 c4 | d8- | d4 A4 | %70
w: who doth act a-|miss.|Our|graves,||our graves|* that|hide|* us|from|* the|
 c4 (B2 A2) | G8 | A4 c4- | c4 d4 | e8 | d4 f4- | f4 e4 | d4 d4 | c8- | c8 | c8 | z8 | z8 | %83
w: search- ing *|sun|Are like|* drawn|cur-|tains when|* the|play is|done,|||||
 z4 A4- | A2 (GF) c4- | c2 (BA) d4- | d2 (cB) c4- | c2 B2 A4- | A2 (GF) G2 G2 | A6 (GF) | %90
w: when|* the * play|* is * done,|* the * play|* is done,|* are * like drawn|cur- tains *|
 E2 D2 A2 A2 | A4 z4 | z4 z2!f! A2 | B4 G4 | (F3 G) A4 | z2 B2 A2 d2 | ^c4 d4 | z8 | z2 G2 A2 c2- | %99
w: when the play is|done.|Thus|march we,|play\- * ing,|thus march we,|play- ing,||thus march we,|
 c2 A4 A2 | B2 B2 A2 A2 | A4 z2 e2 | f3 e d2 c2 | e2 d2- d(c =B2) | A3 G ^F2 E2 | (D3 E FG A2 | %106
w: * play- ing,|to our lat- est|rest, thus|march we, play- ing,|thus march * we, *|play- ing, to our|lat\- * * * *|
 ^G2 A4) G2 | A4 z4 | z2 A2 d3 c | B2 A2 G2 A2 | B4 B4 | A6"^dim." G2 | F2 F2 B4- | B4 A4 | %114
w: * * est|rest,|thus march we,|play- ing, to our|lat- est|rest, On-|ly we die,|* we|
 G2 G2 c4- | c2 B2 A2 G2 | F2 G2 A4- | A2 (GF) G2 F2 |"^dim." E2 (D2 E4) |!p! !fermata!^F8 |] %120
w: die in ear\-|* nest, that's no|jest, we die|* in * ear- nest,|that's no *|jest.|
V:2
!mf! D8 | A,2 A,2 F4- | F2 (ED) E4- | E2 D2 D4- | D4 ^C4 | D4 z4 | z4 A4- |[M:2/2] A4 G4- | %8
w: What|is our life?|* a * play|* of pas\-|* si-|on,|a|* play|
 G2 (FE) (F4 | E3) E A,4 | z4 E4- | E4 D4 | (^C2 D4 C2) | A,8 | A,8- | A,4 =B,4 | ^C8 | D8 | %18
w: * of * pas\-|* si- on,|what|* is|our * *|life,|what|* is|our|life,|
 z4 E4 | A8- | A4 G4 | F8- | F4 E4 | D2 D2 G4- | G4 F4 | E8 | z4 z2!f! E2 | E2 E2 F2 A2 | G4 E4 | %29
w: what|is|* our|life?|* a|play of pas\-|* si-|on.|Our|mirth the mu- sic|of di-|
 ^F3 F G4- | G4 z2 A2 | A2 A2 B4 | G2 c3 B A2- |!>(! A2 G2!>)! A4 | z8 | z8 | z8 | z4 z2!mf! G2 | %38
w: vi- si- on,|* our-|mirth the mu-|sic of di- vi\-|* si- on.||||Our|
 B2 A2 G3 G | C2 F2 F2 E2 | F4 z4 | z8 | z8 | z4 A4- | A4 A,2 =B,2 | ^C4 D4 | E4 F4 | E4 (^C2 D2) | %48
w: mo- thers' wombs the|tir- ing- hou- ses|be,|||Heaven|* the ju-|di- cious|sharp spec-|ta- tor *|
 E4 F4 | E2 E2 D4- | D4 ^C4 | D4 E4 | F2 (ED) E2!f! E2 | A2 =B2 c2 c2 | _B2 B2 A4- | A2 G2 G4 | %56
w: is, heaven|the ju- di\-|* cious|sharp spe-|cta- tor * is, That|sits and marks still|who doth act|* a- miss,|
 A2 F4 E2 | F2 C2 D2 C2 | B,2 C2 A,2 c2 | d2 B2 A4 | z2 (D4 ^C2) |!>(! D8!>)! | z4!p! C4 | F8 | %64
w: that sits and|marks still who doth|act a- miss, still|who doth act|a\- *|miss.|Our|graves|
 F4 G4- | G4 F4 | E4 F4 | F4 E4 | F2 F2 G4- | G4 F4 | E2 C2 F4- | F4 E4 | F4 A4 | G4 F4 | E6 E2 | %75
w: that hide|* us|from the|search- ing|sun, that hide|* us|from the search\-|* ing|sun Are|like drawn|cur- tains|
 F2 D2 d4- | d2 d2 c4- | c4 B4 | A8 | G4 G4- | G2 F2 F4- | F4 E4 | A6 (GF) | E4 z4 | z8 | z8 | z8 | %87
w: when the play|* is done,|* are|like|drawn cur\-|* tains when|* the|play is *|done,||||
 z8 | z2 D2 D2 E2 | F3 G A4- | A2 (GF) E2 E2 | ^F4 z4 | z8 | z4!f! B,4 | A,2 D2 ^C4 | D4 z4 | %96
w: |are like drawn|cur- tains when|* the * play is|done.||Thus|march we, play-|ing,|
 z2 E2 D2 G2 | F4 E2 A2 | G4 F4 | E6 F2 | ED D4 ^C2 | D3 C F2 E2 | D4 z4 | z2 D2 G3 F | %104
w: thus march we,|play- ing, thus|march we,|play- ing|to our lat- est|rest, our lat- est|rest,|thus march we,|
 (E2 D4 ^C2) | D2 z2 z4 | z8 | z2 E2 A3 G | ^F2 E2 D2 (EF) | G6 F2 | E2 D2 G4- | G2 F2 E2 E2 | D8 | %113
w: play\- * *|ing,||thus march we,|play- ing, to our *|lat- est|rest, On- ly|* we die in|ear-|
 E4"^dim." F4- | F4 E4 | F8- | F4 (F2 G2) | A4 B4 |"^dim." A6 A2 |!p! !fermata!A8 |] %120
w: nest, that's|* no|jest,|* in *|ear- nest,|that's no|jest.|
V:3
 z8 | z8 | z8 | z8 | z8 |!mf! d8 | G2 G2 c4- |[M:2/2][K:treble-8] c2 (BA) B2 c2 | d4 d4 | ^c4 d4- | %10
w: |||||What|is our life?|* a * play of|pas- si-|on, of|
 d4 c2 =B2 | A8 | z4 e4- | e4 d4 | (^c2 d4 c2) | d4 d4 | e4 g4 | f8 | e8 | d8 | z8 | z8 | z8 | z8 | %24
w: * pas- si-|on,|what|* is|our * *|life? a|play of|pas-|si-|on.|||||
 z2!f! e2 a4- | a4 g4 | f4 g4 | e2 a2- ag f2 | e2 d3 d ^c2 | z2 d2 d2 d2 | e4 c2 f2- | fedc B2 d2 | %32
w: Our mirth|* the|mu- sic,|the mu\- * sic of|di- vi- si- on,|our mirth the|mu- sic of|* di- vi- si- on, our|
 c2 c2 F3 G |!>(! A2 B2!>)! A3 A | D4 z4 | z2!mf! d2 f2 e2 | d4 e2 g2- | g2 ^f2 g2 (Bc) | %38
w: mirth the mu- sic|of di- vi- si-|on.|Our mo- thers'|wombs, our mo\-|* thers' wombs the *|
 d2 c3 (B G2) | A2 B2 G3 G | F4 z2 f2 | d2 d2 g4- | g4 f4 | e4 d4 | ^c6 d2 | e4 (f2 g2) | a8 | %47
w: tir- ing, the *|tir- ing- hou- ses|be, Where|we are dressed,|* are|dressed for|this short|co- me\- *|dy.|
 z4 a4- | a4 A2 =B2 | ^c4 d4 | e4 f4- | f4 e2 d2 | ^c2 d3 d c2 | z4 z2!f! a2 | f2 g2 e2 e2 | %55
w: Heaven|* the ju-|di- cious|sharp spe\-|* cta- tor,|spe- cta- tor is,|That|sits and marks, that|
 f2 d2 e2 e2 | f2 f2 g2 g2 | a4 f4 | g3 g c4 | z2 d4 ^c2 | d2 B2 A2 A2 |!>(! A8!>)! | z4!p! f4 | %63
w: sits and marks still|who doth act a-|miss, that|sits and marks,|marks still|who doth act a-|miss.|Our|
 c8 | d4 B4- | B4 F4 | c8- | c4 G4 | B8 | (A8- | A4 G2 F2) | G8 | z8 | z4 d4 | a6 g2 | f6 e2 | %76
w: graves|that hide|* us|from|* the|search-|ing||sun||Are|like drawn|cur- tains|
 d2 d2 e2 c2 | d4 g4- | g2 f2 f4- | f4 (e2 d2) | c8 | z4 c4- | c2 (BA) d4- | d2 c2 (f4- | %84
w: when the play is|done, when|* the play|* is *|done,|when|* the * play|* is done,|
 f2 e)(d e4) | f6 g2 | a6 g2 | f6 e2 | d6 (cB) | c2 A2 A2 =B2 | ^c2 (d4 c2) | d4!f! d2 e2- | %92
w: * * is *|done, are|like drawn|cur- tains|when the *|play is done, the|play is *|done. Thus march|
 e2 g2 ^f4 | g4 z4 | z4 e4 | d2 g2 (f3 g) | a4 z4 | z2 a4 f2- | f2 e2 f2 c2 | z8 | z4 z2 e2 | %101
w: * we, play-|ing,|thus|march we, play\- *|ing,|thus march|* we, play- ing,||thus|
 f3 e (d2 ^c2) | d4 z2 e2 | g3 f e2 d2 | ^c2 d2 a3 g | f3 e d3 c | =B2 A2 e3 d | ^c3 =B A4- | %108
w: march we, play\- *|ing, thus|march we, play- ing,|to our lat- est|rest, thus march we,|play- ing, to our|lat- est rest,|
 A4 z4 | z4 z2 d2 | g3 f e2 d2 | ^c2 d2 c2 c2 | d3"^dim." c B2 A2 | G2 G2 A2 B2 | c8- | c4 c4 | %116
w: |thus|march we, play- ing,|to our lat- est|rest, On- ly we|die in ear- nest,|that's|* no|
 d4 z2 D2 | E2 F2 E2 D2 |"^dim." A4 A4 |!p! !fermata!A8 |] %120
w: jest, we|die in ear- nest,|that's no|jest.|
V:4
 z8 | z8 | z8 |!mf! A8- | A8 | D2 D2 B4- | B2 (AG A4) |[M:2/2][K:treble-8] ^F4 G4 | A4 A4 | A8 | %10
w: |||What||is our life?|* a * *|play of|pas- si-|on,|
 D4 G4- | G4 F4 | E2 F2 E4 | z4 A4- | A4 G4 | F8 | E8 | D8 | A8- | A4 =B4 | ^c6 c2 | d6 d2 | %22
w: a play|* of|pas- si- on,|what|* is|our|life?|a|play|* of|pas- si-|on, what|
 B4 c4 | d4 e4 | ^c4 d4 | A6 A2 | D4 z4 | z8 | z4 z2!f! A2 | A2 A2 B4 | G2 c3 BAG | F2 f2 de f2- | %32
w: is our|life? a|play of|pas- si-|on.||Our|mirth the mu-|sic of di- vi- si-|on, our mirth the mu\-|
 f2 e2 f2 (f2- | fe)!>(! d4!>)! ^c2 | d4!mf! c4 | (F3 G A2) G2 | G4 z2 G2 | B2 A2 G4 | D2 F4 E2 | %39
w: * sic of di\-|* * vi- si-|on. Our|mo\- * * thers'|wombs, our|mo- thers' wombs|the tir- ing-|
 F2 D2 C4 | z8 | z4 B4 | G2 G2 c4- | c2 c2 F2 G2 | A4 A4- | A2 G2 F4 | E4 D4 | ^C4 z4 | z8 | z8 | %50
w: hou- ses be,||Where|we are dressed|* for this short|co- me\-|* dy, short|co- me-|~dy.|||
 z2 e2 a4- | a4 g4 | a6!f! a2 | f2 g2 c4 | z4 z2 A2 | A2 =B2 c3 _B | A2 B2 G2 G2 | F2 A2 B2 A2 | %58
w: spe- cta\-|* tor|is, That|sits and marks,|that|sits and marks still|who doth act a-|miss, still who doth|
 G3 G F2 A2 | B2 G2 A3 G | F2 G2 E2 E2 |!>(! ^F8!>)! | z4!p! A4 | A8 | A4 G4- | G4 d4 | G4 A4 | %67
w: act a- miss, that|sits and marks still|who doth act a-|miss.|Our|graves|that hide|* us|from the|
 G6 G2 | D4 D4- | D2 E2 F2 D2 | A4 B4 | c4 c4 | c6 d2 | e4 A4 | A4 A4- | A4 d4 | G8- | G4 G4 | z8 | %79
w: search- ing|sun, from|* the search- ing|sun, the|search- ing|sun Are|like drawn|cur- tains,|* drawn|cur\-|* tains||
 C8- | C8 | C8 | F6 (ED) | A6 (GF) | c6 (BA) | d6 (cB) | f6 e2 | d6 c2 | B6 (AG) | F6 G2 | A8 | %91
w: when||the|play is *|done, the *|play is *|done, are *|like drawn|cur- tains|when the *|play is|done.|
 z4!f! G2 G2- | G2 G2 A4 | G8 | z4 z2 A2 | B2 G2 d4 | A4 z2 B2 | A2 d2 c4 | c4 z2 A2 | c3 B A2 F2 | %100
w: Thus march|* we, play-|ing,|thus|march we, play-|ing, thus|march we, play-|ing, thus|march we, play- ing,|
 G3 F E2 E2 | D4 z2 A2 | d3 c B2 A2 | G4 G4 | A4 A4 | A4 z2 A2 | e3 d (^c2 =B2) | A4 z4 | %108
w: to our lat- est|rest, thus|march we, play- ing|to our|lat- est|rest, thus|march we, play\- *|ing,|
 z4 z2 A2 | d3 c B2 A2 | G6 F2 | E2 D2 A4- | A4 G4- | G2 G2 F4 | G8 | A8 | A6 B2 | %117
w: thus|march we, play- ing,|to our|lat- est rest,|* On\-|* ly we|die,|we|die in|
 c2 A2"^dim." d4- | d4 ^c4 |!p! !fermata!d8 |] %120
w: ear- nest, that's|* no|jest.|
V:5
 z8 | z8 | z8 | z8 | z8 | z8 | z8 |[M:2/2]"^!" D,8- | D,8 | A,,2 A,,2 F,4- | F,2 (E,D, E,2 D,2) | %11
w: |||||||What||is our life?|* a * * *|
 ^C,4 D,4 | A,,8 | A,,8 | A,,8 | D,8 | A,,4 A,,4 | A,8- | A,4 G,4 | F,8 | E,8 | D,4 D,4 | G,8- | %23
w: play of|pas-|si-|on,|what|is our|life,|* our|life?|a|play of|pas\-|
 G,4 G,4 | A,6!f! =B,2 | ^C2 D2 D2 C2 | D3 !courtesy!=C =B,A, G,2 | A,3 G, F,E, D,2 | G,4 A,2 A,2 | %29
w: * si-|on. Our|mirth the mu- sic|of di- vi- si- on,|of di- vi- si- on,|our mirth the|
 D,4 G,4 | C,2 C,2 F,3 E, | D,4 z4 | z8 | z8 | z2!mf! D,2 F,2 E,2 | D,4 A,,2 C,2- | C,2 =B,,2 C,4 | %37
w: mu- sic|of di- vi- si-|on,|||Our mo- thers'|wombs the tir\-|* ing- hou-|
 D,4 G,,4 | z8 | z8 | z2 F,2 D,2 D,2 | G,6 G,2 | G,,4 A,,4 | C,4 D,4 | A,,8- | A,,4 D,4 | %46
w: ses be,|||Where we are|dressed, are|dressed for|this short|co\-|* me-|
 A,,4 A,4- | A,4 A,,2 =B,,2 | ^C,4 D,4 | E,4 (F,4 | G,4) A,4 | B,8 | A,8 | z4 z2!f! A,2 | %54
w: dy. Heaven|* the ju-|di- cious|sharp spe\-|* cta-|tor|is,|That|
 B,2 G,2 A,3 G, | F,2 G,2 C,4 | z2 D,2 B,,2 C,2 | F,,3 F, D,2 F,2 | F,2 E,2 F,2 z2 | z4 z2 A,,2 | %60
w: sits and marks who|doth a- miss,|that sits and|marks still who doth|act a- miss.|still|
 B,,2 G,,2 A,,3 A,, |!>(! D,8!>)! | z4!p! F,4 | F,8 | F,4 _E,4- | E,4 D,4 | C,4 A,,4 | C,8 | %68
w: who doth act a-|miss.|Our|graves|that hide,|* that|hide us|from|
 (B,,6 C,2) | D,4 D,4 | C,8- | C,4 C,4 | F,8 | E,4 D,4- | D,4 ^C,4 | D,6 =C,2 | =B,,4 C,4 | G,8 | %78
w: the *|search- ing|sun|* Are|like|drawn cur\-|* tains|when the|play is|done,|
 A,6 B,2 | C8- | C4 (B,2 A,2) | G,8 | z8 | z8 | z8 | z8 | z8 | z8 | z8 | z8 | z4 z2!f! A,,2 | %91
w: when the|play|* is *|done.|||||||||Thus|
 D,4 =B,,2 C,2- | C,2 _E,2 D,4 | G,,8 | D,2 D,2 A,,4 | z8 | z2 A,,2 B,,2 G,,2 | D,4 A,,4 | %98
w: march we, play\-|* ing, to|our|lat- est rest,||thus march we,|play- ing,|
 C,4 F,,4 | A,,3 B,, C,2 D,2 | G,,2 G,,2 A,,4 | z8 | z8 | z8 | z4 z2 A,,2 | D,3 C, (D,E,F,D,) | %106
w: to our|lat- est rest, our|lat- est rest,||||thus|march we play\- * * *|
 E,6 E,2 | A,3 G, ^F,2 E,2 | D,3 C, B,,2 A,,2 | G,,8- | G,,8 |"^dim." A,,8 | B,,8 | C,8- | C,8 | %115
w: ing, thus|march we, play- ing,|to our lat- est|rest,||On-|ly|we||
 F,6 E,2 | D,2 D,2 C,2 B,,2 | A,,4"^dim." (G,,4 | A,,8) |!p! !fermata!D,8 |] %120
w: die in|ear- nest, that's no|jest, no||jest.|

